images_elementary_svg/cmd/sc_splittable.svg

<svg viewBox="0 0 16 16" xmlns="http://www.w3.org/2000/svg" xmlns:xlink="http://www.w3.org/1999/xlink"><linearGradient id="a"><stop offset="0" stop-color="#cdf87e"/><stop offset=".262" stop-color="#a2e34f"/><stop offset=".661" stop-color="#68b723"/><stop offset="1" stop-color="#1d7e0d"/></linearGradient><radialGradient id="b" cx="64.575" cy="48.605" gradientTransform="matrix(0 .3853 -.4196 0 32.39 -16.793)" gradientUnits="userSpaceOnUse" r="31" xlink:href="#a"/><linearGradient id="c" gradientTransform="matrix(.5944 0 0 .6 -19.265 -.033)" gradientUnits="userSpaceOnUse" x1="25.132" x2="25.132" y1="15.5" y2="48.396"><stop offset="0" stop-color="#fafafa"/><stop offset="1" stop-color="#e2e1de"/></linearGradient><linearGradient id="d" gradientTransform="matrix(.941 0 0 1.027 .46 -.56)" gradientUnits="userSpaceOnUse" x1="7" x2="7" xlink:href="#a" y1="-4" y2="17"/><linearGradient id="e" gradientTransform="matrix(.987 0 0 .884 .093 .65)" gradientUnits="userSpaceOnUse" x1="7" x2="7" y1="2" y2="9"><stop offset="0" stop-color="#fff"/><stop offset=".5" stop-color="#fff" stop-opacity=".235"/><stop offset=".951" stop-color="#fff" stop-opacity=".157"/><stop offset="1" stop-color="#fff" stop-opacity=".392"/></linearGradient><linearGradient id="f" gradientTransform="matrix(.5944 0 0 .6 -19.265 -.033)" gradientUnits="userSpaceOnUse" x1="25.132" x2="25.132" xlink:href="#c" y1="15.5" y2="48.396"/><clipPath id="g"><path d="m0 9h9v5h-9z"/></clipPath><clipPath id="h"><path d="m-.002 1.998h9v5h-9z"/></clipPath><g clip-path="url(#h)" transform="translate(7.002 9.002)"><rect fill="url(#c)" height="10" rx=".424" ry=".491" width="14" x="1" y="3"/><path d="m.5 2a.5.5 0 0 0 -.5.5v11a.5.5 0 0 0 .5.5h15a.5.5 0 0 0 .5-.5v-11a.5.5 0 0 0 -.5-.5zm.498.998h14.004v10.004h-14.004zm4.002.002v2h-4v1h4v3h-4v1h4v3h1v-3h4v3h1v-3h4v-1h-4v-3h4v-1h-4v-2h-1v2h-4v-2zm1 3h4v3h-4z" fill="#030303" opacity=".32"/><path d="m.5 2a.5.5 0 0 0 -.5.5v3.5h.998v-3.002h14.004v3.002h.998v-3.5a.5.5 0 0 0 -.5-.5zm4.5 1v2h-4v1h14v-1h-4v-2h-1v2h-4v-2z" fill="#126400" opacity=".4"/><path d="m.5 2.52h15.02v3.082h-15.02z" fill="url(#d)"/><path d="m.5 2.52v3.082l.51-.008-.01-2.594h14v2.602h.518v-3.08z" fill="url(#e)"/><path d="m5 2.494h1v3.074h-1zm5 0h1v3.103h-1z" fill="#126400" opacity=".4"/></g><g clip-path="url(#g)" transform="translate(7 -9)"><rect fill="url(#f)" height="10" rx=".424" ry=".491" width="14" x="1" y="3"/><path d="m.5 2a.5.5 0 0 0 -.5.5v11a.5.5 0 0 0 .5.5h15a.5.5 0 0 0 .5-.5v-11a.5.5 0 0 0 -.5-.5zm.498.998h14.004v10.004h-14.004zm4.002.002v2h-4v1h4v3h-4v1h4v3h1v-3h4v3h1v-3h4v-1h-4v-3h4v-1h-4v-2h-1v2h-4v-2zm1 3h4v3h-4z" fill="#030303" opacity=".32"/><path d="m.5 2a.5.5 0 0 0 -.5.5v3.5h.998v-3.002h14.004v3.002h.998v-3.5a.5.5 0 0 0 -.5-.5zm4.5 1v2h-4v1h14v-1h-4v-2h-1v2h-4v-2z" fill="#126400" opacity=".4"/><path d="m.5 2.52h15.02v3.082h-15.02z" fill="url(#d)"/><path d="m.5 2.52v3.082l.51-.008-.01-2.594h14v2.602h.518v-3.08z" fill="url(#e)"/><path d="m5 2.494h1v3.074h-1zm5 0h1v3.103h-1z" fill="#126400" opacity=".4"/></g><path d="m9.516 6.508h2v2h-2z" fill="#9cde4a" stroke="#0f5a00" stroke-linecap="round" stroke-linejoin="round" stroke-opacity=".434"/><g fill="#9cde4a" stroke="#5ca12a" stroke-linecap="round" stroke-linejoin="round" stroke-width=".727"><path d="m10.5 10.5v-2.007h3v2.007h2.007v3h-2.007v2.007h-3v-2.007h-2.007v-3z" fill="url(#b)" stroke="none" transform="translate(-7.993 -4)"/><path d="m2.507 6.5v-2.007h3v2.007h2.007v3h-2.007v2.007h-3v-2.007h-2.007v-3z" fill="none" opacity=".5" stroke="#0f5a00" stroke-opacity=".93" stroke-width="1"/><g fill="#fff" stroke="none"><path d="m3.007 5h2v1h-2z" opacity=".5"/><path d="m3.007 10h2v1h-2z" opacity=".2"/><path d="m1.007 7h2v1h-2zm4 0h2v1h-2z" opacity=".4"/></g></g><path d="m10 7h1v1h-1z" fill="#fff" opacity=".4"/><g fill="#9cde4a" stroke="#5ca12a" stroke-linecap="round" stroke-linejoin="round" stroke-width=".727"><path d="m13.516 6.508h2v2h-2z" stroke="#0f5a00" stroke-opacity=".434" stroke-width="1"/><path d="m14 7h1v1h-1z" fill="#fff" opacity=".4" stroke="none"/></g></svg>

<svg xmlns="http://www.w3.org/2000/svg" xmlns:xlink="http://www.w3.org/1999/xlink" viewBox="0 0 16 16"><defs><linearGradient id="a"><stop stop-color="#f4f4f4" offset="0"/><stop stop-color="#dbdbdb" offset="1"/></linearGradient><linearGradient id="b"><stop stop-color="#fff" offset="0"/><stop stop-color="#fff" stop-opacity=".235" offset="0"/><stop stop-color="#fff" stop-opacity=".157" offset="1"/><stop stop-color="#fff" stop-opacity=".392" offset="1"/></linearGradient><linearGradient id="c"><stop stop-opacity=".34" offset="0"/><stop stop-opacity=".247" offset="1"/></linearGradient><radialGradient id="n" gradientUnits="userSpaceOnUse" cy="48.605" cx="64.575" gradientTransform="matrix(0 .3853 -.4196 0 32.39 -16.793)" r="31"><stop stop-color="#cdf87e" offset="0"/><stop stop-color="#a2e34f" offset=".262"/><stop stop-color="#68b723" offset=".661"/><stop stop-color="#1d7e0d" offset="1"/></radialGradient><linearGradient id="f" gradientTransform="matrix(.5944 0 0 .6 -19.265 -.033)" gradientUnits="userSpaceOnUse" x1="25.132" x2="25.132" y1="15.5" y2="48.396"><stop offset="0" stop-color="#fafafa"/><stop offset="1" stop-color="#e2e1de"/></linearGradient><linearGradient xlink:href="#d" id="h" x1="7" y1="-4" x2="7" y2="17" gradientUnits="userSpaceOnUse" gradientTransform="matrix(.941 0 0 1.027 .46 -.56)"/><linearGradient gradientTransform="matrix(1.3832 0 0 1.4144 -36.243 -3.873)" id="d" gradientUnits="userSpaceOnUse" x1="8.295" x2="8.295" y1="-4.284" y2="16.85"><stop offset="0" stop-color="#cdf87e"/><stop offset=".262" stop-color="#a2e34f"/><stop offset=".661" stop-color="#68b723"/><stop offset="1" stop-color="#1d7e0d"/></linearGradient><linearGradient xlink:href="#e" id="i" x1="7" y1="2" x2="7" y2="9" gradientUnits="userSpaceOnUse" gradientTransform="matrix(.987 0 0 .884 .093 .65)"/><linearGradient id="e"><stop offset="0" stop-color="#fff"/><stop offset=".5" stop-color="#fff" stop-opacity=".235"/><stop offset=".951" stop-color="#fff" stop-opacity=".157"/><stop offset="1" stop-color="#fff" stop-opacity=".392"/></linearGradient><linearGradient xlink:href="#f" id="k" gradientUnits="userSpaceOnUse" gradientTransform="matrix(.5944 0 0 .6 -19.265 -.033)" x1="25.132" y1="15.5" x2="25.132" y2="48.396"/><linearGradient xlink:href="#d" id="l" gradientUnits="userSpaceOnUse" gradientTransform="matrix(.941 0 0 1.027 .46 -.56)" x1="7" y1="-4" x2="7" y2="17"/><linearGradient xlink:href="#e" id="m" gradientUnits="userSpaceOnUse" gradientTransform="matrix(.987 0 0 .884 .093 .65)" x1="7" y1="2" x2="7" y2="9"/><clipPath id="j"><path d="M0 9h9v5H0z" fill="#85026c"/></clipPath><clipPath id="g"><path d="M-.002 1.998h9v5h-9z" fill="#85026c"/></clipPath></defs><g transform="translate(7.002 9.002)" clip-path="url(#g)"><rect height="10" rx=".424" ry=".491" width="14" x="1" y="3" fill="url(#f)"/><path d="M.5 2a.5.5 0 0 0-.5.5v11a.5.5 0 0 0 .5.5h15a.5.5 0 0 0 .5-.5v-11a.5.5 0 0 0-.5-.5zm.498.998h14.004v10.004H.998zM5 3v2H1v1h4v3H1v1h4v3h1v-3h4v3h1v-3h4V9h-4V6h4V5h-4V3h-1v2H6V3zm1 3h4v3H6z" opacity=".32" fill="#030303"/><path d="M.5 2a.5.5 0 0 0-.5.5V6h.998V2.998h14.004V6H16V2.5a.5.5 0 0 0-.5-.5zM5 3v2H1v1h14V5h-4V3h-1v2H6V3z" opacity=".4" fill="#126400"/><path d="M.5 2.52H15.52v3.082H.5z" fill="url(#h)"/><path d="M.5 2.52v3.082l.51-.008L1 3h14v2.602h.518v-3.08z" fill="url(#i)"/><path opacity=".4" fill="#126400" d="M5 2.494h1v3.074H5zM10 2.494h1v3.103h-1z"/></g><g transform="translate(7 -9)" clip-path="url(#j)"><rect y="3" x="1" width="14" ry=".491" rx=".424" height="10" fill="url(#k)"/><path d="M.5 2a.5.5 0 0 0-.5.5v11a.5.5 0 0 0 .5.5h15a.5.5 0 0 0 .5-.5v-11a.5.5 0 0 0-.5-.5zm.498.998h14.004v10.004H.998zM5 3v2H1v1h4v3H1v1h4v3h1v-3h4v3h1v-3h4V9h-4V6h4V5h-4V3h-1v2H6V3zm1 3h4v3H6z" opacity=".32" fill="#030303"/><path d="M.5 2a.5.5 0 0 0-.5.5V6h.998V2.998h14.004V6H16V2.5a.5.5 0 0 0-.5-.5zM5 3v2H1v1h14V5h-4V3h-1v2H6V3z" opacity=".4" fill="#126400"/><path d="M.5 2.52H15.52v3.082H.5z" fill="url(#l)"/><path d="M.5 2.52v3.082l.51-.008L1 3h14v2.602h.518v-3.08z" fill="url(#m)"/><path opacity=".4" fill="#126400" d="M5 2.494h1v3.074H5zM10 2.494h1v3.103h-1z"/></g><path stroke-linejoin="round" d="M9.516 6.508h2v2h-2z" stroke-opacity=".434" stroke="#0f5a00" stroke-linecap="round" fill="#9cde4a"/><g stroke-linejoin="round" stroke-linecap="round" stroke-width=".727" stroke="#5ca12a" fill="#9cde4a" color="#000"><path d="M10.5 10.5V8.493h3V10.5h2.007v3H13.5v2.007h-3V13.5H8.493v-3z" fill="url(#n)" transform="translate(-7.993 -4)" stroke="none"/><path style="isolation:auto;mix-blend-mode:normal" d="M2.507 6.5V4.493h3V6.5h2.007v3H5.507v2.007h-3V9.5H.5v-3z" stroke-width="1" stroke="#0f5a00" fill="none" opacity=".5" solid-color="#000000" stroke-opacity=".93"/><g fill="#fff" stroke="none"><path style="isolation:auto;mix-blend-mode:normal" opacity=".5" solid-color="#000000" d="M3.007 5h2v1h-2z"/><path style="isolation:auto;mix-blend-mode:normal" opacity=".2" solid-color="#000000" d="M3.007 10h2v1h-2z"/><path style="isolation:auto;mix-blend-mode:normal" opacity=".4" solid-color="#000000" d="M1.007 7h2v1h-2zm4 0h2v1h-2z"/></g></g><path opacity=".4" fill="#fff" d="M10 7h1v1h-1z"/><g stroke-linejoin="round" stroke="#5ca12a" stroke-linecap="round" stroke-width=".727" fill="#9cde4a"><path d="M13.516 6.508h2v2h-2z" stroke-opacity=".434" stroke="#0f5a00" stroke-width="1"/><path opacity=".4" fill="#fff" d="M14 7h1v1h-1z" stroke="none"/></g></svg>
